; generated by Slic3r 1.2.9 on 2018-10-23 at 23:21:41

; external perimeters extrusion width = 0.40mm
; perimeters extrusion width = 0.68mm
; infill extrusion width = 0.87mm
; solid infill extrusion width = 0.68mm
; top infill extrusion width = 0.68mm
; support material extrusion width = 0.40mm

M107
M190 S55 ; set bed temperature
M104 S200 ; set temperature
G28 ; home all axes
G1 Z5 F5000 ; lift nozzle

G12 P1 S1 T3 ; clean printer w/zig zags
M109 S200 ; wait for temperature to be reached
G21 ; set units to millimeters
G90 ; use absolute coordinates
M82 ; use absolute distances for extrusion
G92 E0
G1 Z0.200 F7800.000
G1 E-4.00000 F600.00000
G92 E0
G1 X82.680 Y72.883 F7800.000
G1 E4.00000 F600.00000
G1 X84.423 Y71.466 E4.06669 F1800.000
G1 X87.499 Y70.672 E4.16103
G1 X132.500 Y70.672 E5.49717
G1 X134.711 Y71.068 E5.56386
G1 X136.646 Y72.209 E5.63056 F1800.000
G1 X138.064 Y73.952 E5.69725
G1 X138.858 Y77.029 E5.79159
G1 X138.858 Y142.971 E7.74952
G1 X138.461 Y145.182 E7.81621
G1 X137.320 Y147.117 E7.88291
G1 X135.577 Y148.534 E7.94960
G1 X132.500 Y149.328 E8.04394
G1 X87.499 Y149.328 E9.38008
G1 X85.289 Y148.932 E9.44677
G1 X83.354 Y147.791 E9.51347
G1 X81.936 Y146.048 E9.58016
G1 X81.142 Y142.971 E9.67450
G1 X81.142 Y77.029 E11.63243
G1 X81.539 Y74.818 E11.69912
G1 X82.650 Y72.934 E11.76403
G1 E7.76403 F600.00000
G92 E0
G1 X131.586 Y142.057 F7800.000
G1 E4.00000 F600.00000
G1 X88.414 Y142.057 E5.28185 F1800.000
G1 X88.414 Y137.943 E5.40402
G1 X131.586 Y137.943 E6.68587
G1 X131.586 Y141.997 E6.80625
G1 X131.943 Y142.414 F7800.000
G1 X88.057 Y142.414 E8.10931 F1800.000
G1 X88.057 Y137.586 E8.25268
G1 X131.943 Y137.586 E9.55573
G1 X131.943 Y142.354 E9.69732
G1 X132.300 Y142.771 F7800.000
G1 X87.699 Y142.771 E11.02158 F1800.000
G1 X87.699 Y137.229 E11.18616
G1 X132.300 Y137.229 E12.51042
G1 X132.300 Y142.711 E12.67321
G1 X131.954 Y142.571 F7800.000
G1 E8.67321 F600.00000
G92 E0
G1 X131.379 Y138.342 F7800.000
G1 E4.00000 F600.00000
G1 X131.187 Y138.151 E4.00806 F1800.000
G1 X130.681 Y138.151 E4.02313
G1 X131.379 Y138.848 E4.05251
G1 X131.379 Y139.355 E4.06758
G1 X130.174 Y138.151 E4.11827
G1 X129.668 Y138.151 E4.13334
G1 X131.379 Y139.861 E4.20535
G1 X131.379 Y140.367 E4.22042
G1 X129.162 Y138.151 E4.31374
G1 X128.656 Y138.151 E4.32881
G1 X131.379 Y140.874 E4.44345
G1 X131.379 Y141.380 E4.45852
G1 X128.149 Y138.151 E4.59447
G1 X127.643 Y138.151 E4.60954
G1 X131.340 Y141.848 E4.76520
G1 X130.836 Y141.849 E4.78022
G1 X127.137 Y138.151 E4.93594
G1 X126.630 Y138.151 E4.95101
G1 X130.329 Y141.849 E5.10673
G1 X129.823 Y141.849 E5.12181
G1 X126.124 Y138.151 E5.27753
G1 X125.618 Y138.151 E5.29260
G1 X129.317 Y141.849 E5.44832
G1 X128.810 Y141.849 E5.46340
G1 X125.112 Y138.151 E5.61912
G1 X124.605 Y138.151 E5.63419
G1 X128.304 Y141.849 E5.78991
G1 X127.798 Y141.849 E5.80499
G1 X124.099 Y138.151 E5.96071
G1 X123.593 Y138.151 E5.97578
G1 X127.292 Y141.849 E6.13150
G1 X126.785 Y141.849 E6.14658
G1 X123.086 Y138.151 E6.30230
G1 X122.580 Y138.151 E6.31737
G1 X126.279 Y141.849 E6.47309
G1 X125.773 Y141.849 E6.48816
G1 X122.074 Y138.151 E6.64389
G1 X121.567 Y138.151 E6.65896
G1 X125.266 Y141.849 E6.81468
G1 X124.760 Y141.849 E6.82975
G1 X121.061 Y138.151 E6.98548
G1 X120.555 Y138.151 E7.00055
G1 X124.254 Y141.849 E7.15627
G1 X123.747 Y141.849 E7.17134
G1 X120.049 Y138.151 E7.32707
G1 X119.542 Y138.151 E7.34214
G1 X123.241 Y141.849 E7.49786
G1 X122.735 Y141.849 E7.51293
G1 X119.036 Y138.151 E7.66866
G1 X118.530 Y138.151 E7.68373
G1 X122.229 Y141.849 E7.83945
G1 X121.722 Y141.849 E7.85452
G1 X118.023 Y138.151 E8.01025
G1 X117.517 Y138.151 E8.02532
G1 X121.216 Y141.849 E8.18104
G1 X120.710 Y141.849 E8.19611
G1 X117.011 Y138.151 E8.35184
G1 X116.504 Y138.151 E8.36691
G1 X120.203 Y141.849 E8.52263
G1 X119.697 Y141.849 E8.53770
G1 X115.998 Y138.151 E8.69343
G1 X115.492 Y138.151 E8.70850
G1 X119.191 Y141.849 E8.86422
G1 X118.684 Y141.849 E8.87929
G1 X114.986 Y138.151 E9.03502
G1 X114.479 Y138.151 E9.05009
G1 X118.178 Y141.849 E9.20581
G1 X117.672 Y141.849 E9.22088
G1 X113.973 Y138.151 E9.37661
G1 X113.467 Y138.151 E9.39168
G1 X117.166 Y141.849 E9.54740
G1 X116.659 Y141.849 E9.56247
G1 X112.960 Y138.151 E9.71819
G1 X112.454 Y138.151 E9.73327
G1 X116.153 Y141.849 E9.88899
G1 X115.647 Y141.849 E9.90406
G1 X111.948 Y138.151 E10.05978
G1 X111.441 Y138.151 E10.07486
G1 X115.140 Y141.849 E10.23058
G1 X114.634 Y141.849 E10.24565
G1 X110.935 Y138.151 E10.40137
G1 X110.429 Y138.151 E10.41645
G1 X114.128 Y141.849 E10.57217
G1 X113.621 Y141.849 E10.58724
G1 X109.923 Y138.151 E10.74296
G1 X109.416 Y138.151 E10.75804
G1 X113.115 Y141.849 E10.91376
G1 X112.609 Y141.849 E10.92883
G1 X108.910 Y138.151 E11.08455
G1 X108.404 Y138.151 E11.09963
G1 X112.103 Y141.849 E11.25535
G1 X111.596 Y141.849 E11.27042
G1 X107.897 Y138.151 E11.42614
G1 X107.391 Y138.151 E11.44121
G1 X111.090 Y141.849 E11.59694
G1 X110.584 Y141.849 E11.61201
G1 X106.885 Y138.151 E11.76773
G1 X106.378 Y138.151 E11.78280
G1 X110.077 Y141.849 E11.93853
G1 X109.571 Y141.849 E11.95360
G1 X105.872 Y138.151 E12.10932
G1 X105.366 Y138.151 E12.12439
G1 X109.065 Y141.849 E12.28012
G1 X108.558 Y141.849 E12.29519
G1 X104.860 Y138.151 E12.45091
G1 X104.353 Y138.151 E12.46598
G1 X108.052 Y141.849 E12.62171
G1 X107.546 Y141.849 E12.63678
G1 X103.847 Y138.151 E12.79250
G1 X103.341 Y138.151 E12.80757
G1 X107.040 Y141.849 E12.96330
G1 X106.533 Y141.849 E12.97837
G1 X102.834 Y138.151 E13.13409
G1 X102.328 Y138.151 E13.14916
G1 X106.027 Y141.849 E13.30489
G1 X105.521 Y141.849 E13.31996
G1 X101.822 Y138.151 E13.47568
G1 X101.315 Y138.151 E13.49075
G1 X105.014 Y141.849 E13.64647
G1 X104.508 Y141.849 E13.66155
G1 X100.809 Y138.151 E13.81727
G1 X100.303 Y138.151 E13.83234
G1 X104.002 Y141.849 E13.98806
G1 X103.496 Y141.849 E14.00314
G1 X99.797 Y138.151 E14.15886
G1 X99.290 Y138.151 E14.17393
G1 X102.989 Y141.849 E14.32965
G1 X102.483 Y141.849 E14.34473
G1 X98.784 Y138.151 E14.50045
G1 X98.278 Y138.151 E14.51552
G1 X101.977 Y141.849 E14.67124
G1 X101.470 Y141.849 E14.68632
G1 X97.771 Y138.151 E14.84204
G1 X97.265 Y138.151 E14.85711
G1 X100.964 Y141.849 E15.01283
G1 X100.458 Y141.849 E15.02790
G1 X96.759 Y138.151 E15.18363
G1 X96.252 Y138.151 E15.19870
G1 X99.951 Y141.849 E15.35442
G1 X99.445 Y141.849 E15.36949
G1 X95.746 Y138.151 E15.52522
G1 X95.240 Y138.151 E15.54029
G1 X98.939 Y141.849 E15.69601
G1 X98.433 Y141.849 E15.71108
G1 X94.734 Y138.151 E15.86681
G1 X94.227 Y138.151 E15.88188
G1 X97.926 Y141.849 E16.03760
G1 X97.420 Y141.849 E16.05267
G1 X93.721 Y138.151 E16.20840
G1 X93.215 Y138.151 E16.22347
G1 X96.914 Y141.849 E16.37919
G1 X96.407 Y141.849 E16.39426
G1 X92.708 Y138.151 E16.54999
G1 X92.202 Y138.151 E16.56506
G1 X95.901 Y141.849 E16.72078
G1 X95.395 Y141.849 E16.73585
G1 X91.696 Y138.151 E16.89158
G1 X91.189 Y138.151 E16.90665
G1 X94.888 Y141.849 E17.06237
G1 X94.382 Y141.849 E17.07744
G1 X90.683 Y138.151 E17.23317
G1 X90.177 Y138.151 E17.24824
G1 X93.876 Y141.849 E17.40396
G1 X93.370 Y141.849 E17.41903
G1 X89.671 Y138.151 E17.57475
G1 X89.164 Y138.151 E17.58983
G1 X92.863 Y141.849 E17.74555
G1 X92.357 Y141.849 E17.76062
G1 X88.660 Y138.152 E17.91627
G1 X88.621 Y138.620 E17.93025
G1 X91.851 Y141.849 E18.06620
G1 X91.344 Y141.849 E18.08127
G1 X88.621 Y139.127 E18.19590
G1 X88.621 Y139.633 E18.21097
G1 X90.838 Y141.849 E18.30429
G1 X90.332 Y141.849 E18.31936
G1 X88.621 Y140.139 E18.39136
G1 X88.621 Y140.645 E18.40644
G1 X89.825 Y141.849 E18.45712
G1 X89.319 Y141.849 E18.47219
G1 X88.621 Y141.152 E18.50157
G1 X88.621 Y141.658 E18.51664
G1 X88.813 Y141.849 E18.52470
G1 E14.52470 F600.00000
G92 E0
G1 X131.586 Y127.057 F7800.000
G1 E4.00000 F600.00000
G1 X88.414 Y127.057 E5.28185 F1800.000
G1 X88.414 Y122.943 E5.40402
G1 X131.586 Y122.943 E6.68587
G1 X131.586 Y126.997 E6.80625
G1 X131.943 Y127.414 F7800.000
G1 X88.057 Y127.414 E8.10931 F1800.000
G1 X88.057 Y122.586 E8.25268
G1 X131.943 Y122.586 E9.55573
G1 X131.943 Y127.354 E9.69732
G1 X132.300 Y127.771 F7800.000
G1 X87.699 Y127.771 E11.02158 F1800.000
G1 X87.699 Y122.229 E11.18616
G1 X132.300 Y122.229 E12.51042
G1 X132.300 Y127.711 E12.67321
G1 X131.954 Y127.571 F7800.000
G1 E8.67321 F600.00000
G92 E0
G1 X131.379 Y123.342 F7800.000
G1 E4.00000 F600.00000
G1 X131.187 Y123.151 E4.00806 F1800.000
G1 X130.681 Y123.151 E4.02313
G1 X131.379 Y123.848 E4.05251
G1 X131.379 Y124.355 E4.06758
G1 X130.174 Y123.151 E4.11827
G1 X129.668 Y123.151 E4.13334
G1 X131.379 Y124.861 E4.20535
G1 X131.379 Y125.367 E4.22042
G1 X129.162 Y123.151 E4.31374
G1 X128.656 Y123.151 E4.32881
G1 X131.379 Y125.874 E4.44345
G1 X131.379 Y126.380 E4.45852
G1 X128.149 Y123.151 E4.59447
G1 X127.643 Y123.151 E4.60954
G1 X131.340 Y126.848 E4.76519
G1 X130.836 Y126.849 E4.78022
G1 X127.137 Y123.151 E4.93594
G1 X126.630 Y123.151 E4.95101
G1 X130.329 Y126.849 E5.10673
G1 X129.823 Y126.849 E5.12181
G1 X126.124 Y123.151 E5.27753
G1 X125.618 Y123.151 E5.29260
G1 X129.317 Y126.849 E5.44832
G1 X128.810 Y126.849 E5.46339
G1 X125.112 Y123.151 E5.61912
G1 X124.605 Y123.151 E5.63419
G1 X128.304 Y126.849 E5.78991
G1 X127.798 Y126.849 E5.80498
G1 X124.099 Y123.151 E5.96071
G1 X123.593 Y123.151 E5.97578
G1 X127.292 Y126.849 E6.13150
G1 X126.785 Y126.849 E6.14657
G1 X123.086 Y123.151 E6.30230
G1 X122.580 Y123.151 E6.31737
G1 X126.279 Y126.849 E6.47309
G1 X125.773 Y126.849 E6.48816
G1 X122.074 Y123.151 E6.64389
G1 X121.567 Y123.151 E6.65896
G1 X125.266 Y126.849 E6.81468
G1 X124.760 Y126.849 E6.82975
G1 X121.061 Y123.151 E6.98547
G1 X120.555 Y123.151 E7.00055
G1 X124.254 Y126.849 E7.15627
G1 X123.747 Y126.849 E7.17134
G1 X120.049 Y123.151 E7.32706
G1 X119.542 Y123.151 E7.34214
G1 X123.241 Y126.849 E7.49786
G1 X122.735 Y126.849 E7.51293
G1 X119.036 Y123.151 E7.66865
G1 X118.530 Y123.151 E7.68372
G1 X122.229 Y126.849 E7.83945
G1 X121.722 Y126.849 E7.85452
G1 X118.023 Y123.151 E8.01024
G1 X117.517 Y123.151 E8.02531
G1 X121.216 Y126.849 E8.18104
G1 X120.710 Y126.849 E8.19611
G1 X117.011 Y123.151 E8.35183
G1 X116.504 Y123.151 E8.36690
G1 X120.203 Y126.849 E8.52263
G1 X119.697 Y126.849 E8.53770
G1 X115.998 Y123.151 E8.69342
G1 X115.492 Y123.151 E8.70849
G1 X119.191 Y126.849 E8.86422
G1 X118.684 Y126.849 E8.87929
G1 X114.986 Y123.151 E9.03501
G1 X114.479 Y123.151 E9.05008
G1 X118.178 Y126.849 E9.20580
G1 X117.672 Y126.849 E9.22088
G1 X113.973 Y123.151 E9.37660
G1 X113.467 Y123.151 E9.39167
G1 X117.166 Y126.849 E9.54739
G1 X116.659 Y126.849 E9.56247
G1 X112.960 Y123.151 E9.71819
G1 X112.454 Y123.151 E9.73326
G1 X116.153 Y126.849 E9.88898
G1 X115.647 Y126.849 E9.90406
G1 X111.948 Y123.151 E10.05978
G1 X111.441 Y123.151 E10.07485
G1 X115.140 Y126.849 E10.23057
G1 X114.634 Y126.849 E10.24564
G1 X110.935 Y123.151 E10.40137
G1 X110.429 Y123.151 E10.41644
G1 X114.128 Y126.849 E10.57216
G1 X113.621 Y126.849 E10.58723
G1 X109.923 Y123.151 E10.74296
G1 X109.416 Y123.151 E10.75803
G1 X113.115 Y126.849 E10.91375
G1 X112.609 Y126.849 E10.92882
G1 X108.910 Y123.151 E11.08455
G1 X108.404 Y123.151 E11.09962
G1 X112.103 Y126.849 E11.25534
G1 X111.596 Y126.849 E11.27041
G1 X107.897 Y123.151 E11.42613
G1 X107.391 Y123.151 E11.44121
G1 X111.090 Y126.849 E11.59693
G1 X110.584 Y126.849 E11.61200
G1 X106.885 Y123.151 E11.76772
G1 X106.378 Y123.151 E11.78280
G1 X110.077 Y126.849 E11.93852
G1 X109.571 Y126.849 E11.95359
G1 X105.872 Y123.151 E12.10931
G1 X105.366 Y123.151 E12.12439
G1 X109.065 Y126.849 E12.28011
G1 X108.558 Y126.849 E12.29518
G1 X104.860 Y123.151 E12.45090
G1 X104.353 Y123.151 E12.46597
G1 X108.052 Y126.849 E12.62170
G1 X107.546 Y126.849 E12.63677
G1 X103.847 Y123.151 E12.79249
G1 X103.341 Y123.151 E12.80756
G1 X107.040 Y126.849 E12.96329
G1 X106.533 Y126.849 E12.97836
G1 X102.834 Y123.151 E13.13408
G1 X102.328 Y123.151 E13.14915
G1 X106.027 Y126.849 E13.30488
G1 X105.521 Y126.849 E13.31995
G1 X101.822 Y123.151 E13.47567
G1 X101.315 Y123.151 E13.49074
G1 X105.014 Y126.849 E13.64647
G1 X104.508 Y126.849 E13.66154
G1 X100.809 Y123.151 E13.81726
G1 X100.303 Y123.151 E13.83233
G1 X104.002 Y126.849 E13.98805
G1 X103.496 Y126.849 E14.00313
G1 X99.797 Y123.151 E14.15885
G1 X99.290 Y123.151 E14.17392
G1 X102.989 Y126.849 E14.32964
G1 X102.483 Y126.849 E14.34472
G1 X98.784 Y123.151 E14.50044
G1 X98.278 Y123.151 E14.51551
G1 X101.977 Y126.849 E14.67123
G1 X101.470 Y126.849 E14.68630
G1 X97.771 Y123.151 E14.84203
G1 X97.265 Y123.151 E14.85710
G1 X100.964 Y126.849 E15.01282
G1 X100.458 Y126.849 E15.02789
G1 X96.759 Y123.151 E15.18362
G1 X96.252 Y123.151 E15.19869
G1 X99.951 Y126.849 E15.35441
G1 X99.445 Y126.849 E15.36948
G1 X95.746 Y123.151 E15.52521
G1 X95.240 Y123.151 E15.54028
G1 X98.939 Y126.849 E15.69600
G1 X98.433 Y126.849 E15.71107
G1 X94.734 Y123.151 E15.86680
G1 X94.227 Y123.151 E15.88187
G1 X97.926 Y126.849 E16.03759
G1 X97.420 Y126.849 E16.05266
G1 X93.721 Y123.151 E16.20838
G1 X93.215 Y123.151 E16.22346
G1 X96.914 Y126.849 E16.37918
G1 X96.407 Y126.849 E16.39425
G1 X92.708 Y123.151 E16.54997
G1 X92.202 Y123.151 E16.56505
G1 X95.901 Y126.849 E16.72077
G1 X95.395 Y126.849 E16.73584
G1 X91.696 Y123.151 E16.89156
G1 X91.189 Y123.151 E16.90663
G1 X94.888 Y126.849 E17.06236
G1 X94.382 Y126.849 E17.07743
G1 X90.683 Y123.151 E17.23315
G1 X90.177 Y123.151 E17.24822
G1 X93.876 Y126.849 E17.40395
G1 X93.370 Y126.849 E17.41902
G1 X89.671 Y123.151 E17.57474
G1 X89.164 Y123.151 E17.58981
G1 X92.863 Y126.849 E17.74554
G1 X92.357 Y126.849 E17.76061
G1 X88.660 Y123.152 E17.91626
G1 X88.621 Y123.620 E17.93024
G1 X91.851 Y126.849 E18.06618
G1 X91.344 Y126.849 E18.08126
G1 X88.621 Y124.127 E18.19589
G1 X88.621 Y124.633 E18.21096
G1 X90.838 Y126.849 E18.30428
G1 X90.332 Y126.849 E18.31935
G1 X88.621 Y125.139 E18.39135
G1 X88.621 Y125.645 E18.40642
G1 X89.825 Y126.849 E18.45711
G1 X89.319 Y126.849 E18.47218
G1 X88.621 Y126.152 E18.50155
G1 X88.621 Y126.658 E18.51663
G1 X88.813 Y126.849 E18.52468
G1 E14.52468 F600.00000
G92 E0
G1 X131.586 Y112.057 F7800.000
G1 E4.00000 F600.00000
G1 X88.414 Y112.057 E5.28185 F1800.000
G1 X88.414 Y107.943 E5.40402
G1 X131.586 Y107.943 E6.68587
G1 X131.586 Y111.997 E6.80626
G1 X131.943 Y112.414 F7800.000
G1 X88.057 Y112.414 E8.10931 F1800.000
G1 X88.057 Y107.586 E8.25268
G1 X131.943 Y107.586 E9.55574
G1 X131.943 Y112.354 E9.69733
G1 X132.300 Y112.771 F7800.000
G1 X87.699 Y112.771 E11.02159 F1800.000
G1 X87.699 Y107.229 E11.18616
G1 X132.300 Y107.229 E12.51043
G1 X132.300 Y112.711 E12.67322
G1 X131.954 Y112.571 F7800.000
G1 E8.67322 F600.00000
G92 E0
G1 X131.379 Y108.342 F7800.000
G1 E4.00000 F600.00000
G1 X131.187 Y108.150 E4.00806 F1800.000
G1 X130.681 Y108.150 E4.02313
G1 X131.379 Y108.848 E4.05251
G1 X131.379 Y109.355 E4.06758
G1 X130.174 Y108.150 E4.11827
G1 X129.668 Y108.150 E4.13335
G1 X131.379 Y109.861 E4.20535
G1 X131.379 Y110.367 E4.22042
G1 X129.162 Y108.150 E4.31374
G1 X128.656 Y108.150 E4.32882
G1 X131.379 Y110.873 E4.44345
G1 X131.379 Y111.380 E4.45852
G1 X128.149 Y108.150 E4.59447
G1 X127.643 Y108.150 E4.60954
G1 X131.340 Y111.848 E4.76520
G1 X130.836 Y111.850 E4.78022
G1 X127.137 Y108.150 E4.93594
G1 X126.630 Y108.150 E4.95102
G1 X130.329 Y111.850 E5.10674
G1 X129.823 Y111.850 E5.12181
G1 X126.124 Y108.150 E5.27754
G1 X125.618 Y108.150 E5.29261
G1 X129.317 Y111.850 E5.44834
G1 X128.811 Y111.850 E5.46341
G1 X125.111 Y108.150 E5.61913
G1 X124.605 Y108.150 E5.63421
G1 X128.304 Y111.850 E5.78993
G1 X127.798 Y111.850 E5.80500
G1 X124.099 Y108.150 E5.96073
G1 X123.593 Y108.150 E5.97580
G1 X127.292 Y111.850 E6.13153
G1 X126.785 Y111.850 E6.14660
G1 X123.086 Y108.150 E6.30232
G1 X122.580 Y108.150 E6.31739
G1 X126.279 Y111.850 E6.47312
G1 X125.773 Y111.850 E6.48819
G1 X122.074 Y108.150 E6.64392
G1 X121.567 Y108.150 E6.65899
G1 X125.266 Y111.850 E6.81472
G1 X124.760 Y111.850 E6.82979
G1 X121.061 Y108.150 E6.98551
G1 X120.555 Y108.150 E7.00058
G1 X124.254 Y111.850 E7.15631
G1 X123.748 Y111.850 E7.17138
G1 X120.048 Y108.150 E7.32711
G1 X119.542 Y108.150 E7.34218
G1 X123.241 Y111.850 E7.49790
G1 X122.735 Y111.850 E7.51298
G1 X119.036 Y108.150 E7.66870
G1 X118.530 Y108.150 E7.68377
G1 X122.229 Y111.850 E7.83950
G1 X121.722 Y111.850 E7.85457
G1 X118.023 Y108.150 E8.01030
G1 X117.517 Y108.150 E8.02537
