; generated by Slic3r 1.2.9 on 2018-10-24 at 10:10:36

; external perimeters extrusion width = 0.40mm
; perimeters extrusion width = 0.68mm
; infill extrusion width = 0.87mm
; solid infill extrusion width = 0.68mm
; top infill extrusion width = 0.68mm
; support material extrusion width = 0.40mm

M107
M190 S55 ; set bed temperature
M104 S200 ; set temperature
G28 ; home all axes
G1 Z5 F5000 ; lift nozzle

G12 P1 S1 T3 ; clean printer w/zig zags
M109 S200 ; wait for temperature to be reached
G21 ; set units to millimeters
G90 ; use absolute coordinates
M82 ; use absolute distances for extrusion
G92 E0
G1 Z0.200 F7800.000
G1 E-4.00000 F600.00000
G92 E0
G1 X60.239 Y19.762 F7800.000
G1 E4.00000 F600.00000
G1 X60.771 Y18.168 E4.04990 F1800.000
G1 X61.412 Y16.548 E4.10163
G1 X61.956 Y15.368 E4.14019
G1 X62.172 Y14.942 E4.15437
G1 X62.778 Y13.851 E4.19144
G1 X63.079 Y13.363 E4.20846
G1 X63.752 Y12.373 E4.24402
G1 X64.168 Y11.828 E4.26436
G1 X64.912 Y10.953 E4.29847
G1 X65.476 Y10.370 E4.32254
G1 X66.296 Y9.624 E4.35547
G1 X67.033 Y9.048 E4.38324
G1 X67.933 Y8.444 E4.41544
G1 X68.841 Y7.937 E4.44629
G1 X69.826 Y7.489 E4.47843
G1 X70.861 Y7.122 E4.51104
G1 X71.935 Y6.843 E4.54398
G1 X73.012 Y6.660 E4.57641
G1 X74.179 Y6.564 E4.61118
G1 X74.700 Y6.543 E4.62666
G1 X145.000 Y6.543 E6.71396
G1 X145.524 Y6.565 E6.72952
G1 X146.648 Y6.658 E6.76303 F1800.000
G1 X147.730 Y6.842 E6.79560
G1 X148.765 Y7.112 E6.82738
G1 X149.799 Y7.480 E6.85995
G1 X150.751 Y7.914 E6.89101
G1 X151.653 Y8.418 E6.92169
G1 X152.525 Y9.003 E6.95288
G1 X153.254 Y9.573 E6.98035
G1 X154.050 Y10.296 E7.01227
G1 X154.606 Y10.867 E7.03594
G1 X155.332 Y11.714 E7.06905
G1 X155.741 Y12.246 E7.08898
G1 X156.400 Y13.203 E7.12350
G1 X156.697 Y13.677 E7.14008
G1 X157.294 Y14.732 E7.17607
G1 X157.507 Y15.142 E7.18981
G1 X158.200 Y16.632 E7.23858
G1 X158.797 Y18.138 E7.28671
G1 X159.315 Y19.655 E7.33430
G1 X159.766 Y21.176 E7.38139
G1 X160.137 Y22.587 E7.42470
G1 X201.300 Y186.371 E12.43889
G1 X201.403 Y187.004 E12.45796
G1 X201.451 Y187.631 E12.47661
G1 X201.305 Y189.283 E12.52585
G1 X198.381 Y202.362 E12.92378
G1 X198.200 Y203.007 E12.94368
G1 X197.821 Y204.098 E12.97795
G1 X197.637 Y204.546 E12.99234
G1 X197.147 Y205.576 E13.02621
G1 X196.833 Y206.148 E13.04558
G1 X196.228 Y207.105 E13.07920
G1 X195.557 Y208.007 E13.11257
G1 X195.250 Y208.378 E13.12687
G1 X194.821 Y208.856 E13.14595
G1 X194.022 Y209.647 E13.17932
G1 X193.164 Y210.375 E13.21273
G1 X192.773 Y210.671 E13.22729
G1 X191.834 Y211.305 E13.26093
G1 X191.282 Y211.630 E13.27996
G1 X190.263 Y212.148 E13.31390
G1 X189.797 Y212.353 E13.32902
G1 X188.713 Y212.754 E13.36333
G1 X188.090 Y212.942 E13.38265
G1 X186.944 Y213.207 E13.41756
G1 X185.768 Y213.378 E13.45285
G1 X185.236 Y213.423 E13.46873
G1 X184.300 Y213.457 E13.49652
G1 X35.439 Y213.452 E17.91639
G1 X34.756 Y213.424 E17.93670
G1 X33.565 Y213.297 E17.97225
G1 X33.038 Y213.209 E17.98812
G1 X31.899 Y212.950 E18.02281
G1 X31.269 Y212.764 E18.04231
G1 X30.175 Y212.364 E18.07688
G1 X29.710 Y212.163 E18.09194
G1 X28.682 Y211.647 E18.12608
G1 X28.124 Y211.323 E18.14524
G1 X27.176 Y210.690 E18.17909
G1 X26.783 Y210.396 E18.19366
G1 X25.915 Y209.666 E18.22732
G1 X25.108 Y208.875 E18.26088
G1 X24.365 Y208.024 E18.29444
G1 X23.967 Y207.510 E18.31372
G1 X23.330 Y206.575 E18.34732
G1 X22.762 Y205.588 E18.38113
G1 X22.269 Y204.555 E18.41513
G1 X21.854 Y203.479 E18.44937
G1 X21.702 Y203.011 E18.46397
G1 X21.425 Y201.981 E18.49564
G1 X18.685 Y189.236 E18.88269
G1 X18.549 Y187.632 E18.93051
G1 X18.599 Y186.988 E18.94966
G1 X18.700 Y186.371 E18.96825
G1 X59.718 Y21.602 E24.00975
G1 X60.221 Y19.819 E24.06476
G1 E20.06476 F600.00000
G92 E0
G1 X38.106 Y191.170 F7800.000
G1 E4.00000 F600.00000
G1 X44.959 Y193.397 E4.21396 F1800.000
G1 X44.959 Y200.603 E4.42792
G1 X38.106 Y202.830 E4.64189
G1 X33.870 Y197.000 E4.85585
G1 X38.070 Y191.219 E5.06803
G1 X38.242 Y191.590 F7800.000
G1 X44.602 Y193.656 E5.26658 F1800.000
G1 X44.602 Y200.344 E5.46514
G1 X38.242 Y202.410 E5.66369
G1 X34.311 Y197.000 E5.86225
G1 X38.207 Y191.638 E6.05903
G1 X38.379 Y192.010 F7800.000
G1 X44.245 Y193.916 E6.24218 F1800.000
G1 X44.245 Y200.084 E6.42532
G1 X38.379 Y201.990 E6.60848
G1 X34.753 Y197.000 E6.79163
G1 X38.343 Y192.058 E6.97299
G1 X38.541 Y191.644 F7800.000
G1 E2.97299 F600.00000
G92 E0
G1 X175.041 Y193.397 F7800.000
G1 E4.00000 F600.00000
G1 X181.894 Y191.170 E4.21396 F1800.000
G1 X186.130 Y197.000 E4.42792
G1 X181.894 Y202.830 E4.64189
G1 X175.041 Y200.603 E4.85585
G1 X175.041 Y193.457 E5.06803
G1 X175.398 Y193.656 F7800.000
G1 X181.758 Y191.590 E5.26658 F1800.000
G1 X185.689 Y197.000 E5.46514
G1 X181.758 Y202.410 E5.66370
G1 X175.398 Y200.344 E5.86225
G1 X175.398 Y193.716 E6.05902
G1 X175.755 Y193.916 F7800.000
G1 X181.621 Y192.010 E6.24218 F1800.000
G1 X185.247 Y197.000 E6.42533
G1 X181.621 Y201.990 E6.60848
G1 X175.755 Y200.084 E6.79163
G1 X175.755 Y193.976 E6.97299
G1 X175.672 Y193.525 F7800.000
G1 E2.97299 F600.00000
G92 E0
G1 X146.894 Y30.830 F7800.000
G1 E4.00000 F600.00000
G1 X140.041 Y28.603 E4.21396 F1800.000
G1 X140.041 Y21.397 E4.42792
G1 X146.894 Y19.170 E4.64188
G1 X151.130 Y25.000 E4.85585
G1 X146.930 Y30.781 E5.06803
G1 X146.758 Y30.410 F7800.000
G1 X140.398 Y28.344 E5.26658 F1800.000
G1 X140.398 Y21.656 E5.46514
G1 X146.758 Y19.590 E5.66369
G1 X150.689 Y25.000 E5.86225
G1 X146.793 Y30.362 E6.05903
G1 X146.621 Y29.990 F7800.000
G1 X140.755 Y28.084 E6.24218 F1800.000
G1 X140.755 Y21.916 E6.42532
G1 X146.621 Y20.010 E6.60848
G1 X150.247 Y25.000 E6.79163
G1 X146.657 Y29.942 E6.97299
G1 X146.459 Y30.356 F7800.000
G1 E2.97299 F600.00000
G92 E0
G1 X79.959 Y28.603 F7800.000
G1 E4.00000 F600.00000
G1 X73.106 Y30.830 E4.21396 F1800.000
G1 X68.870 Y25.000 E4.42792
G1 X73.106 Y19.170 E4.64189
G1 X79.959 Y21.397 E4.85585
G1 X79.959 Y28.543 E5.06803
G1 X79.602 Y28.344 F7800.000
G1 X73.242 Y30.410 E5.26658 F1800.000
G1 X69.311 Y25.000 E5.46514
G1 X73.242 Y19.590 E5.66370
G1 X79.602 Y21.656 E5.86225
G1 X79.602 Y28.284 E6.05903
G1 X79.245 Y28.084 F7800.000
G1 X73.379 Y29.990 E6.24218 F1800.000
G1 X69.753 Y25.000 E6.42533
G1 X73.379 Y20.010 E6.60848
G1 X79.245 Y21.916 E6.79163
G1 X79.245 Y28.024 E6.97299
G1 X79.328 Y28.475 F7800.000
G1 E2.97299 F600.00000
G92 E0
G1 X25.824 Y187.838 F7800.000
G1 E4.00000 F600.00000
G1 X25.893 Y187.685 E4.00496 F1800.000
G1 X25.985 Y187.593 E4.00884
G1 X26.093 Y187.536 E4.01247
G1 X26.239 Y187.514 E4.01684
G1 X39.863 Y187.510 E4.42136
G1 X40.180 Y187.459 E4.43089
G1 X40.478 Y187.365 E4.44018
G1 X40.768 Y187.227 E4.44970
G1 X41.129 Y186.977 E4.46274
G1 X41.436 Y186.665 E4.47574
G1 X41.623 Y186.400 E4.48538
G1 X41.767 Y186.119 E4.49475
G1 X41.873 Y185.806 E4.50456
G1 X65.006 Y34.224 E9.05735
G1 X65.478 Y30.302 E9.17464
G1 X65.899 Y27.521 E9.25815
G1 X66.153 Y26.124 E9.30030
G1 X66.443 Y24.734 E9.34246
G1 X66.772 Y23.369 E9.38415
G1 X67.144 Y22.043 E9.42504
G1 X67.561 Y20.770 E9.46481
G1 X68.027 Y19.566 E9.50316
G1 X68.545 Y18.443 E9.53984
G1 X69.114 Y17.418 E9.57467
G1 X69.737 Y16.503 E9.60752
G1 X70.411 Y15.710 E9.63844
G1 X71.139 Y15.049 E9.66763
G1 X71.921 Y14.524 E9.69560
G1 X72.766 Y14.140 E9.72315
G1 X73.687 Y13.901 E9.75140
G1 X74.738 Y13.814 E9.78271
G1 X144.985 Y13.816 E11.86844
G1 X145.970 Y13.898 E11.89779
G1 X146.852 Y14.128 E11.92487
G1 X147.664 Y14.498 E11.95136
G1 X148.419 Y15.004 E11.97834
G1 X149.123 Y15.643 E12.00658
G1 X149.780 Y16.409 E12.03654
G1 X150.389 Y17.294 E12.06842
G1 X150.950 Y18.285 E12.10222
G1 X151.463 Y19.369 E12.13784
G1 X151.931 Y20.532 E12.17507
G1 X152.355 Y21.761 E12.21366
G1 X152.738 Y23.040 E12.25332
G1 X153.084 Y24.357 E12.29373
G1 X153.397 Y25.696 E12.33457
G1 X153.937 Y28.386 E12.41603
G1 X154.394 Y31.011 E12.49514
G1 X180.160 Y185.946 E17.15853
G1 X180.394 Y186.461 E17.17535
G1 X180.592 Y186.738 E17.18545
G1 X180.908 Y187.056 E17.19876
G1 X181.386 Y187.347 E17.21536
G1 X181.716 Y187.457 E17.22571
G1 X182.035 Y187.510 E17.23532
G1 X193.761 Y187.514 E17.58347
G1 X193.835 Y187.520 E17.58568
G1 X193.988 Y187.575 E17.59051
G1 X194.087 Y187.660 E17.59436
G1 X194.166 Y187.801 E17.59919
G1 X194.172 Y187.848 E17.60057
G1 X191.590 Y198.473 E17.92522
G1 X191.561 Y199.226 E17.94761
G1 X191.488 Y199.837 E17.96588
G1 X191.370 Y200.432 E17.98387
G1 X191.209 Y201.008 E18.00164
G1 X191.005 Y201.564 E18.01922
G1 X190.762 Y202.098 E18.03665
G1 X190.481 Y202.608 E18.05395
G1 X190.164 Y203.093 E18.07114
G1 X189.813 Y203.550 E18.08824
G1 X189.430 Y203.976 E18.10526
G1 X189.018 Y204.371 E18.12222
G1 X188.578 Y204.733 E18.13912
G1 X188.112 Y205.058 E18.15599
G1 X187.623 Y205.346 E18.17284
G1 X187.112 Y205.595 E18.18970
G1 X186.582 Y205.802 E18.20660
G1 X186.034 Y205.967 E18.22359
G1 X185.470 Y206.087 E18.24071
G1 X184.892 Y206.160 E18.25803
G1 X184.281 Y206.186 E18.27618
G1 X35.719 Y206.186 E22.68718
G1 X35.092 Y206.160 E22.70579
G1 X34.500 Y206.086 E22.72352
G1 X33.923 Y205.966 E22.74101
G1 X33.365 Y205.801 E22.75830
G1 X32.825 Y205.593 E22.77547
G1 X32.307 Y205.344 E22.79254
G1 X31.811 Y205.056 E22.80957
G1 X31.340 Y204.730 E22.82658
G1 X30.896 Y204.369 E22.84358
G1 X30.480 Y203.974 E22.86061
G1 X30.094 Y203.547 E22.87769
G1 X29.741 Y203.091 E22.89482
G1 X29.422 Y202.606 E22.91203
G1 X29.140 Y202.097 E22.92933
G1 X28.896 Y201.563 E22.94676
G1 X28.692 Y201.007 E22.96434
G1 X28.530 Y200.431 E22.98210
G1 X28.412 Y199.837 E23.00009
G1 X28.339 Y199.226 E23.01835
G1 X28.310 Y198.477 E23.04061
G1 X25.838 Y187.896 E23.36324
G1 X25.469 Y187.787 F7800.000
G1 X25.543 Y187.571 E23.36999 F1800.000
G1 X25.682 Y187.382 E23.37697
G1 X25.772 Y187.305 E23.38049
G1 X25.977 Y187.197 E23.38737
G1 X26.224 Y187.157 E23.39479
G1 X39.834 Y187.153 E23.79891
G1 X40.097 Y187.111 E23.80681
G1 X40.347 Y187.032 E23.81459
G1 X40.588 Y186.917 E23.82253
G1 X40.898 Y186.703 E23.83370
G1 X41.161 Y186.436 E23.84483
G1 X41.317 Y186.214 E23.85288
G1 X41.437 Y185.980 E23.86071
G1 X41.525 Y185.721 E23.86880
G1 X64.652 Y34.175 E28.42050
G1 X65.124 Y30.254 E28.53778
G1 X65.546 Y27.462 E28.62161
G1 X65.802 Y26.055 E28.66406
G1 X66.094 Y24.656 E28.70651
G1 X66.426 Y23.279 E28.74856
G1 X66.802 Y21.939 E28.78988
G1 X67.225 Y20.650 E28.83016
G1 X67.698 Y19.426 E28.86912
G1 X68.226 Y18.282 E28.90653
G1 X68.810 Y17.231 E28.94224
G1 X69.452 Y16.286 E28.97614
G1 X70.154 Y15.462 E29.00831
G1 X70.918 Y14.767 E29.03896
G1 X71.747 Y14.211 E29.06858
G1 X72.646 Y13.802 E29.09792
G1 X73.627 Y13.547 E29.12800
G1 X74.723 Y13.457 E29.16066
G1 X144.999 Y13.459 E31.24726
G1 X146.030 Y13.544 E31.27797
G1 X146.973 Y13.790 E31.30689
G1 X147.839 Y14.185 E31.33516
G1 X148.639 Y14.722 E31.36377
G1 X149.380 Y15.394 E31.39345
G1 X150.063 Y16.191 E31.42464
G1 X150.692 Y17.104 E31.45755
G1 X151.267 Y18.120 E31.49221
G1 X151.790 Y19.226 E31.52853
G1 X152.265 Y20.407 E31.56635
G1 X152.695 Y21.651 E31.60542
G1 X153.082 Y22.944 E31.64548
G1 X153.431 Y24.271 E31.68622
G1 X153.746 Y25.618 E31.72731
G1 X154.289 Y28.322 E31.80918
G1 X154.746 Y30.951 E31.88842
G1 X180.504 Y185.840 E36.55044
G1 X180.705 Y186.282 E36.56485
G1 X180.866 Y186.507 E36.57305
G1 X181.131 Y186.773 E36.58421
G1 X181.537 Y187.021 E36.59833
G1 X181.803 Y187.110 E36.60666
G1 X182.065 Y187.153 E36.61455
G1 X193.776 Y187.157 E36.96227
G1 X193.902 Y187.168 E36.96602
G1 X194.086 Y187.223 E36.97173
G1 X194.274 Y187.342 E36.97834
G1 X194.428 Y187.521 E36.98534
G1 X194.516 Y187.720 E36.99181
G1 X194.534 Y187.868 E36.99624
G1 X191.946 Y198.523 E37.32178
G1 X191.917 Y199.254 E37.34352
G1 X191.841 Y199.893 E37.36262
G1 X191.718 Y200.515 E37.38145
G1 X191.549 Y201.118 E37.40003
G1 X191.336 Y201.699 E37.41843
G1 X191.081 Y202.258 E37.43667
G1 X190.787 Y202.793 E37.45477
G1 X190.455 Y203.300 E37.47277
G1 X190.088 Y203.778 E37.49067
G1 X189.687 Y204.225 E37.50850
G1 X189.255 Y204.639 E37.52626
G1 X188.794 Y205.017 E37.54398
G1 X188.305 Y205.359 E37.56167
G1 X187.792 Y205.661 E37.57936
G1 X187.256 Y205.922 E37.59706
G1 X186.699 Y206.140 E37.61482
G1 X186.123 Y206.313 E37.63268
G1 X185.530 Y206.439 E37.65068
G1 X184.922 Y206.516 E37.66888
G1 X184.288 Y206.543 E37.68771
G1 X35.711 Y206.543 E42.09914
G1 X35.063 Y206.516 E42.11841
G1 X34.441 Y206.439 E42.13702
G1 X33.836 Y206.313 E42.15537
G1 X33.250 Y206.139 E42.17352
G1 X32.684 Y205.921 E42.19154
G1 X32.140 Y205.660 E42.20946
G1 X31.620 Y205.357 E42.22732
G1 X31.126 Y205.016 E42.24515
G1 X30.660 Y204.637 E42.26297
G1 X30.224 Y204.223 E42.28082
G1 X29.820 Y203.776 E42.29870
G1 X29.450 Y203.298 E42.31665
G1 X29.117 Y202.791 E42.33467
G1 X28.821 Y202.258 E42.35278
G1 X28.566 Y201.699 E42.37103
G1 X28.352 Y201.117 E42.38943
G1 X28.182 Y200.515 E42.40801
G1 X28.059 Y199.893 E42.42683
G1 X27.983 Y199.254 E42.44593
G1 X27.955 Y198.525 E42.46759
G1 X25.464 Y187.846 E42.79317
G1 X25.123 Y187.698 F7800.000
G1 X25.226 Y187.404 E42.80242 F1800.000
G1 X25.317 Y187.259 E42.80750
G1 X25.429 Y187.129 E42.81260
G1 X25.559 Y187.017 E42.81770
G1 X25.704 Y186.926 E42.82278
G1 X25.861 Y186.858 E42.82786
G1 X26.027 Y186.815 E42.83294
G1 X26.208 Y186.800 E42.83835
G1 X39.806 Y186.796 E43.24207
G1 X40.015 Y186.763 E43.24835
G1 X40.216 Y186.699 E43.25461
G1 X40.409 Y186.607 E43.26097
G1 X40.667 Y186.429 E43.27028
G1 X40.886 Y186.206 E43.27955
G1 X41.011 Y186.029 E43.28599
G1 X41.108 Y185.840 E43.29229
G1 X41.176 Y185.637 E43.29866
G1 X64.298 Y34.127 E47.84926
G1 X64.770 Y30.206 E47.96654
G1 X65.194 Y27.403 E48.05069
G1 X65.452 Y25.987 E48.09343
G1 X65.746 Y24.577 E48.13619
G1 X66.081 Y23.189 E48.17859
G1 X66.460 Y21.835 E48.22034
G1 X66.888 Y20.530 E48.26112
G1 X67.369 Y19.287 E48.30069
G1 X67.907 Y18.120 E48.33884
G1 X68.506 Y17.043 E48.37542
G1 X69.168 Y16.070 E48.41038
G1 X69.897 Y15.213 E48.44379
G1 X70.697 Y14.485 E48.47590
G1 X71.572 Y13.898 E48.50717
G1 X72.526 Y13.464 E48.53830
G1 X73.567 Y13.194 E48.57022
G1 X74.708 Y13.100 E48.60423
G1 X145.014 Y13.102 E50.69171
G1 X146.090 Y13.191 E50.72377 F1800.000
G1 X147.093 Y13.452 E50.75452
G1 X148.014 Y13.873 E50.78458
G1 X148.860 Y14.440 E50.81483
G1 X149.636 Y15.144 E50.84595
G1 X150.347 Y15.973 E50.87836
G1 X150.995 Y16.915 E50.91230
G1 X151.584 Y17.955 E50.94781
G1 X152.118 Y19.082 E50.98484
G1 X152.600 Y20.282 E51.02324
G1 X153.035 Y21.542 E51.06279
G1 X153.426 Y22.847 E51.10325
G1 X153.778 Y24.185 E51.14431
G1 X154.094 Y25.541 E51.18568
G1 X154.381 Y26.903 E51.22701
G1 X154.640 Y28.258 E51.26794
G1 X155.098 Y30.891 E51.34731
G1 X180.849 Y185.735 E56.00798
G1 X181.016 Y186.103 E56.01996
G1 X181.139 Y186.276 E56.02628
G1 X181.353 Y186.491 E56.03528
G1 X181.688 Y186.695 E56.04693
G1 X181.889 Y186.762 E56.05322
G1 X182.094 Y186.796 E56.05939
G1 X193.792 Y186.800 E56.40669
G1 X193.969 Y186.815 E56.41199
G1 X194.222 Y186.891 E56.41983
G1 X194.370 Y186.969 E56.42479
G1 X194.508 Y187.071 E56.42988
G1 X194.629 Y187.192 E56.43498
G1 X194.731 Y187.330 E56.44007
G1 X194.811 Y187.481 E56.44515
G1 X194.865 Y187.639 E56.45010
G1 X194.897 Y187.889 E56.45757
G1 X192.301 Y198.572 E56.78401
G1 X192.273 Y199.282 E56.80511
G1 X192.194 Y199.949 E56.82504
G1 X192.065 Y200.598 E56.84469
G1 X191.889 Y201.227 E56.86410
G1 X191.666 Y201.835 E56.88331
G1 X191.400 Y202.419 E56.90236
G1 X191.093 Y202.977 E56.92127
G1 X190.746 Y203.507 E56.94007
G1 X190.363 Y204.006 E56.95878
G1 X189.944 Y204.473 E56.97741
G1 X189.492 Y204.906 E56.99598
G1 X189.009 Y205.302 E57.01452
G1 X188.498 Y205.659 E57.03303
G1 X187.961 Y205.976 E57.05155
G1 X187.399 Y206.249 E57.07010
G1 X186.815 Y206.478 E57.08872
G1 X186.212 Y206.659 E57.10744
G1 X185.590 Y206.792 E57.12631
G1 X184.952 Y206.872 E57.14541
G1 X184.296 Y206.900 E57.16490
G1 X35.704 Y206.900 E61.57678
G1 X35.034 Y206.872 E61.59671
G1 X34.383 Y206.791 E61.61618
G1 X33.749 Y206.659 E61.63540
G1 X33.135 Y206.478 E61.65442
G1 X32.542 Y206.249 E61.67328
G1 X31.972 Y205.975 E61.69205
G1 X31.428 Y205.659 E61.71074
G1 X30.911 Y205.302 E61.72939
G1 X30.424 Y204.905 E61.74804
G1 X29.968 Y204.473 E61.76670
G1 X29.546 Y204.006 E61.78539
G1 X29.160 Y203.506 E61.80415
G1 X28.811 Y202.976 E61.82298
G1 X28.502 Y202.419 E61.84191
G1 X28.235 Y201.835 E61.86097
G1 X28.012 Y201.227 E61.88018
G1 X27.835 Y200.598 E61.89960
G1 X27.706 Y199.949 E61.91924
G1 X27.627 Y199.282 E61.93917
