; generated by Slic3r 1.2.9 on 2018-10-23 at 17:12:17

; external perimeters extrusion width = 0.40mm
; perimeters extrusion width = 0.67mm
; infill extrusion width = 0.67mm
; solid infill extrusion width = 0.67mm
; top infill extrusion width = 0.67mm

M107
M190 S55 ; set bed temperature
M104 S200 ; set temperature
G28 ; home all axes
G1 Z5 F5000 ; lift nozzle

G12 P1 S1 T3 ; clean printer w/zig zags
M109 S200 ; wait for temperature to be reached
G21 ; set units to millimeters
G90 ; use absolute coordinates
M82 ; use absolute distances for extrusion
G92 E0
G1 Z0.250 F7800.000
G1 E-4.00000 F600.00000
G92 E0
G1 X60.155 Y19.734 F7800.000
G1 E4.00000 F600.00000
G1 X60.688 Y18.136 E4.07819 F1800.000
G1 X61.331 Y16.510 E4.15927
G1 X61.875 Y15.331 E4.21954
G1 X62.094 Y14.899 E4.24199
G1 X62.700 Y13.807 E4.29993
G1 X63.005 Y13.313 E4.32688
G1 X63.678 Y12.323 E4.38242
G1 X64.100 Y11.770 E4.41467
G1 X64.844 Y10.895 E4.46797
G1 X65.416 Y10.304 E4.50610
G1 X66.236 Y9.558 E4.55756
G1 X66.982 Y8.974 E4.60152
G1 X67.884 Y8.369 E4.65186
G1 X68.803 Y7.856 E4.70073
G1 X69.789 Y7.408 E4.75096
G1 X70.839 Y7.036 E4.80263
G1 X71.912 Y6.757 E4.85410
G1 X73.004 Y6.571 E4.90549
G1 X74.171 Y6.475 E4.95981
G1 X74.700 Y6.454 E4.98435
G1 X145.000 Y6.454 E8.24575
G1 X145.531 Y6.476 E8.27039
G1 X146.656 Y6.569 E8.32276 F1800.000
G1 X147.752 Y6.756 E8.37436
G1 X148.788 Y7.026 E8.42402
G1 X149.836 Y7.399 E8.47563
G1 X150.788 Y7.833 E8.52416
G1 X151.703 Y8.344 E8.57280
G1 X152.575 Y8.929 E8.62151
G1 X153.313 Y9.506 E8.66497
G1 X154.110 Y10.229 E8.71491
G1 X154.674 Y10.809 E8.75242
G1 X155.399 Y11.655 E8.80414
G1 X155.815 Y12.195 E8.83573
G1 X156.474 Y13.152 E8.88965
G1 X156.774 Y13.633 E8.91594
G1 X157.371 Y14.688 E8.97217
G1 X157.588 Y15.104 E8.99393
G1 X158.282 Y16.598 E9.07039
G1 X158.881 Y18.109 E9.14579
G1 X159.400 Y19.630 E9.22033
G1 X159.853 Y21.153 E9.29404
G1 X160.224 Y22.565 E9.36177
G1 X201.388 Y186.352 E17.19659
G1 X201.492 Y186.991 E17.22664
G1 X201.542 Y187.661 E17.25781
G1 X201.392 Y189.302 E17.33425
G1 X198.467 Y202.386 E17.95624
G1 X198.286 Y203.030 E17.98729
G1 X197.905 Y204.128 E18.04120
G1 X197.718 Y204.583 E18.06400
G1 X197.225 Y205.619 E18.11724
G1 X196.909 Y206.193 E18.14762
G1 X196.304 Y207.152 E18.20025
G1 X195.628 Y208.062 E18.25281
G1 X195.316 Y208.437 E18.27546
G1 X194.887 Y208.916 E18.30527
G1 X194.084 Y209.711 E18.35772
G1 X193.221 Y210.444 E18.41025
G1 X192.824 Y210.745 E18.43333
G1 X191.886 Y211.378 E18.48586
G1 X191.327 Y211.707 E18.51595
G1 X190.302 Y212.228 E18.56929
G1 X189.829 Y212.436 E18.59325
G1 X188.735 Y212.841 E18.64737
G1 X188.116 Y213.027 E18.67738
G1 X186.963 Y213.294 E18.73228
G1 X185.780 Y213.467 E18.78775
G1 X185.240 Y213.513 E18.81288
G1 X184.300 Y213.546 E18.85652
G1 X35.435 Y213.541 E25.76276
G1 X34.752 Y213.513 E25.79446
G1 X33.554 Y213.386 E25.85036
G1 X33.033 Y213.299 E25.87487
G1 X31.878 Y213.037 E25.92983
G1 X31.243 Y212.849 E25.96051
G1 X30.143 Y212.447 E26.01485
G1 X29.665 Y212.241 E26.03900
G1 X28.637 Y211.724 E26.09238
G1 X27.655 Y211.131 E26.14560
G1 X27.125 Y210.764 E26.17553
G1 X26.726 Y210.464 E26.19869
G1 X25.856 Y209.733 E26.25140
G1 X25.386 Y209.287 E26.28143
G1 X24.609 Y208.455 E26.33428
G1 X23.897 Y207.565 E26.38714
G1 X23.254 Y206.623 E26.44004
G1 X22.684 Y205.632 E26.49312
G1 X22.188 Y204.592 E26.54656
G1 X21.770 Y203.511 E26.60034
G1 X21.616 Y203.035 E26.62353
G1 X21.338 Y202.000 E26.67327
G1 X18.598 Y189.255 E27.27803
G1 X18.459 Y187.628 E27.35379
G1 X18.510 Y186.977 E27.38408
G1 X18.612 Y186.352 E27.41345
G1 X59.632 Y21.581 E35.29095
G1 X60.136 Y19.791 E35.37720
G1 E31.37720 F600.00000
G92 E0
G1 X26.055 Y187.819 F7800.000
G1 E4.00000 F600.00000
G1 X26.176 Y187.749 E4.00650 F1800.000
G1 X26.248 Y187.743 E4.00989
G1 X39.881 Y187.739 E4.64235
G1 X40.233 Y187.682 E4.65888
G1 X40.562 Y187.578 E4.67488
G1 X40.883 Y187.426 E4.69136
G1 X41.277 Y187.153 E4.71360
G1 X41.613 Y186.810 E4.73589
G1 X41.819 Y186.518 E4.75247
G1 X41.978 Y186.209 E4.76860
G1 X42.096 Y185.860 E4.78565
G1 X65.232 Y34.254 E11.90048
G1 X65.704 Y30.332 E12.08375
G1 X66.124 Y27.558 E12.21392
G1 X66.377 Y26.168 E12.27949
G1 X66.666 Y24.784 E12.34506
G1 X66.993 Y23.427 E12.40984
G1 X67.362 Y22.109 E12.47331
G1 X67.776 Y20.847 E12.53494
G1 X68.238 Y19.655 E12.59425
G1 X68.749 Y18.547 E12.65084
G1 X69.309 Y17.538 E12.70438
G1 X69.919 Y16.642 E12.75466
G1 X70.576 Y15.870 E12.80171
G1 X71.280 Y15.229 E12.84587
G1 X72.033 Y14.724 E12.88792
G1 X72.842 Y14.356 E12.92918
G1 X73.725 Y14.127 E12.97148
G1 X74.747 Y14.043 E13.01906
G1 X144.967 Y14.044 E16.27675
G1 X145.931 Y14.124 E16.32165
G1 X146.776 Y14.344 E16.36212
G1 X147.552 Y14.698 E16.40173
G1 X148.277 Y15.185 E16.44224
G1 X148.959 Y15.803 E16.48492
G1 X149.598 Y16.549 E16.53051
G1 X150.195 Y17.415 E16.57929
G1 X150.747 Y18.390 E16.63126
G1 X151.254 Y19.460 E16.68621
G1 X151.717 Y20.612 E16.74381
G1 X152.137 Y21.831 E16.80362
G1 X152.518 Y23.102 E16.86519
G1 X152.863 Y24.412 E16.92800
G1 X153.174 Y25.745 E16.99154
G1 X153.713 Y28.427 E17.11843
G1 X154.169 Y31.049 E17.24191
G1 X179.939 Y186.013 E24.52980
G1 X180.196 Y186.576 E24.55852
G1 X180.417 Y186.886 E24.57619
G1 X180.766 Y187.237 E24.59913
G1 X181.289 Y187.555 E24.62755
G1 X181.661 Y187.680 E24.64577
G1 X182.017 Y187.739 E24.66249
G1 X193.751 Y187.743 E25.20690
G1 X193.950 Y187.793 E25.21640
G1 X191.363 Y198.441 E25.72476
G1 X191.333 Y199.208 E25.76038
G1 X191.262 Y199.801 E25.78809
G1 X191.148 Y200.378 E25.81539
G1 X190.991 Y200.938 E25.84233
G1 X190.794 Y201.477 E25.86898
G1 X190.557 Y201.995 E25.89540
G1 X190.285 Y202.490 E25.92162
G1 X189.977 Y202.960 E25.94768
G1 X189.637 Y203.403 E25.97360
G1 X189.266 Y203.817 E25.99939
G1 X188.866 Y204.200 E26.02507
G1 X188.439 Y204.550 E26.05067
G1 X187.988 Y204.866 E26.07620
G1 X187.515 Y205.145 E26.10170
G1 X187.021 Y205.385 E26.12720
G1 X186.508 Y205.586 E26.15276
G1 X185.978 Y205.745 E26.17843
G1 X185.432 Y205.861 E26.20430
G1 X184.873 Y205.932 E26.23047
G1 X184.276 Y205.957 E26.25817
G1 X35.723 Y205.957 E33.14991
G1 X35.111 Y205.932 E33.17834
G1 X34.537 Y205.861 E33.20517
G1 X33.979 Y205.744 E33.23162
G1 X33.438 Y205.584 E33.25778
G1 X32.916 Y205.383 E33.28375
G1 X32.414 Y205.142 E33.30959
G1 X31.934 Y204.863 E33.33536
G1 X31.478 Y204.547 E33.36108
G1 X31.041 Y204.192 E33.38721
G1 X30.643 Y203.814 E33.41266
G1 X30.270 Y203.400 E33.43852
G1 X29.927 Y202.958 E33.46448
G1 X29.618 Y202.488 E33.49056
G1 X29.344 Y201.994 E33.51679
G1 X29.107 Y201.476 E33.54321
G1 X28.910 Y200.937 E33.56985
G1 X28.752 Y200.378 E33.59677
G1 X28.638 Y199.801 E33.62405
G1 X28.567 Y199.208 E33.65176
G1 X28.538 Y198.446 E33.68713
G1 X26.068 Y187.878 E34.19064
G1 X25.606 Y187.810 F7800.000
G1 X25.666 Y187.637 E34.19914 F1800.000
G1 X25.717 Y187.555 E34.20360
G1 X25.855 Y187.417 E34.21265
G1 X26.022 Y187.329 E34.22142
G1 X26.230 Y187.296 E34.23115
G1 X39.846 Y187.293 E34.86283
G1 X40.130 Y187.247 E34.87618
G1 X40.398 Y187.162 E34.88924
G1 X40.659 Y187.038 E34.90262
G1 X40.988 Y186.810 E34.92122
G1 X41.269 Y186.523 E34.93985
G1 X41.436 Y186.286 E34.95330
G1 X41.566 Y186.034 E34.96646
G1 X41.660 Y185.755 E34.98015
G1 X64.790 Y34.194 E42.09284
G1 X65.262 Y30.272 E42.27610
G1 X65.684 Y27.485 E42.40689
G1 X65.939 Y26.082 E42.47303
G1 X66.230 Y24.686 E42.53919
G1 X66.561 Y23.314 E42.60467
G1 X66.935 Y21.979 E42.66897
G1 X67.356 Y20.697 E42.73160
G1 X67.827 Y19.481 E42.79210
G1 X68.350 Y18.345 E42.85012
G1 X68.929 Y17.304 E42.90537
G1 X69.563 Y16.371 E42.95770
G1 X70.255 Y15.559 E43.00720
G1 X71.004 Y14.877 E43.05420
G1 X71.815 Y14.333 E43.09948
G1 X72.693 Y13.934 E43.14423
G1 X73.650 Y13.685 E43.19012
G1 X74.729 Y13.596 E43.24033
G1 X144.985 Y13.598 E46.49972
G1 X146.007 Y13.682 E46.54727
G1 X146.926 Y13.922 E46.59133
G1 X147.771 Y14.307 E46.63442
G1 X148.553 Y14.832 E46.67813
G1 X149.279 Y15.491 E46.72363
G1 X149.953 Y16.276 E46.77161
G1 X150.574 Y17.178 E46.82240
G1 X151.143 Y18.184 E46.87604
G1 X151.663 Y19.281 E46.93236
G1 X152.135 Y20.456 E46.99109
G1 X152.562 Y21.694 E47.05185
G1 X152.948 Y22.981 E47.11420
G1 X153.296 Y24.304 E47.17765
G1 X153.610 Y25.649 E47.24170
G1 X154.152 Y28.347 E47.36938
G1 X154.609 Y30.974 E47.49311
G1 X180.370 Y185.881 E54.77835
G1 X180.584 Y186.352 E54.80233
G1 X180.759 Y186.597 E54.81631
G1 X181.044 Y186.884 E54.83505
G1 X181.478 Y187.148 E54.85863
G1 X181.769 Y187.245 E54.87288
G1 X182.053 Y187.293 E54.88624
G1 X193.770 Y187.296 E55.42983
G1 X193.876 Y187.305 E55.43475
G1 X194.033 Y187.352 E55.44236
G1 X194.183 Y187.448 E55.45060
G1 X194.310 Y187.595 E55.45963
G1 X194.379 Y187.752 E55.46757
G1 X194.393 Y187.860 E55.47264
G1 X191.807 Y198.503 E55.98076
G1 X191.778 Y199.243 E56.01512
G1 X191.704 Y199.871 E56.04446
G1 X191.582 Y200.482 E56.07337
G1 X191.416 Y201.075 E56.10191
G1 X191.207 Y201.647 E56.13016
G1 X190.957 Y202.196 E56.15816
G1 X190.667 Y202.721 E56.18596
G1 X190.341 Y203.219 E56.21359
G1 X189.980 Y203.689 E56.24107
G1 X189.587 Y204.128 E56.26843
G1 X189.162 Y204.534 E56.29570
G1 X188.709 Y204.906 E56.32289
G1 X188.230 Y205.242 E56.35003
G1 X187.726 Y205.538 E56.37715
G1 X187.200 Y205.795 E56.40430
G1 X186.653 Y206.008 E56.43153
G1 X186.088 Y206.178 E56.45890
G1 X185.507 Y206.302 E56.48649
G1 X184.910 Y206.377 E56.51439
G1 X184.285 Y206.404 E56.54340
G1 X35.714 Y206.404 E63.43600
G1 X35.074 Y206.377 E63.46571
G1 X34.464 Y206.301 E63.49424
G1 X33.870 Y206.177 E63.52239
G1 X33.295 Y206.007 E63.55023
G1 X32.739 Y205.793 E63.57786
G1 X32.205 Y205.537 E63.60535
G1 X31.694 Y205.240 E63.63275
G1 X31.210 Y204.904 E63.66009
G1 X30.746 Y204.527 E63.68781
G1 X30.324 Y204.126 E63.71484
G1 X29.927 Y203.687 E63.74229
G1 X29.564 Y203.217 E63.76983
G1 X29.236 Y202.719 E63.79750
G1 X28.946 Y202.195 E63.82531
G1 X28.694 Y201.646 E63.85332
G1 X28.485 Y201.074 E63.88157
G1 X28.318 Y200.482 E63.91010
G1 X28.197 Y199.871 E63.93900
G1 X28.122 Y199.243 E63.96834
G1 X28.093 Y198.506 E64.00255
G1 X25.608 Y187.869 E64.50932
G1 X25.174 Y187.699 F7800.000
G1 X25.270 Y187.428 E64.52269 F1800.000
G1 X25.358 Y187.289 E64.53029
G1 X25.589 Y187.058 E64.54548
G1 X25.728 Y186.970 E64.55308
G1 X25.877 Y186.905 E64.56065
G1 X26.035 Y186.865 E64.56821
G1 X26.211 Y186.850 E64.57638
G1 X39.810 Y186.846 E65.20728
G1 X40.026 Y186.811 E65.21745
G1 X40.234 Y186.746 E65.22756
G1 X40.434 Y186.650 E65.23785
G1 X40.699 Y186.467 E65.25280
G1 X40.925 Y186.237 E65.26777
G1 X41.054 Y186.055 E65.27810
G1 X41.154 Y185.860 E65.28827
G1 X41.225 Y185.649 E65.29861
G1 X64.348 Y34.134 E72.40916
G1 X64.820 Y30.212 E72.59241
G1 X65.244 Y27.411 E72.72383
G1 X65.501 Y25.997 E72.79054
G1 X65.795 Y24.588 E72.85728
G1 X66.129 Y23.201 E72.92347
G1 X66.508 Y21.850 E72.98860
G1 X66.936 Y20.547 E73.05222
G1 X67.416 Y19.306 E73.11391
G1 X67.952 Y18.143 E73.17336
G1 X68.548 Y17.069 E73.23032
G1 X69.208 Y16.100 E73.28471
G1 X69.933 Y15.248 E73.33664
G1 X70.728 Y14.525 E73.38650
G1 X71.596 Y13.942 E73.43500
G1 X72.543 Y13.511 E73.48325
G1 X73.575 Y13.243 E73.53271
G1 X74.710 Y13.150 E73.58556
G1 X145.004 Y13.151 E76.84666
G1 X146.082 Y13.240 E76.89685 F1800.000
G1 X147.076 Y13.500 E76.94450
G1 X147.989 Y13.916 E76.99107
G1 X148.829 Y14.480 E77.03799
G1 X149.600 Y15.179 E77.08629
G1 X150.307 Y16.004 E77.13667
G1 X150.952 Y16.941 E77.18947
G1 X151.540 Y17.978 E77.24477
G1 X152.072 Y19.103 E77.30247
G1 X152.553 Y20.300 E77.36234
G1 X152.987 Y21.557 E77.42404
G1 X153.378 Y22.860 E77.48717
G1 X153.729 Y24.197 E77.55126
G1 X154.046 Y25.552 E77.61583
G1 X154.331 Y26.913 E77.68037
G1 X154.591 Y28.267 E77.74429
G1 X155.049 Y30.900 E77.86828
G1 X180.800 Y185.750 E85.15086
G1 X180.972 Y186.128 E85.17011
G1 X181.101 Y186.308 E85.18040
G1 X181.322 Y186.530 E85.19494
G1 X181.667 Y186.741 E85.21369
G1 X181.877 Y186.811 E85.22396
G1 X182.090 Y186.846 E85.23397
G1 X193.789 Y186.850 E85.77673
G1 X193.960 Y186.864 E85.78466
G1 X194.203 Y186.937 E85.79645
G1 X194.475 Y187.109 E85.81136
G1 X194.689 Y187.357 E85.82655
G1 X194.816 Y187.650 E85.84140
G1 X194.846 Y187.886 E85.85241
G1 X192.251 Y198.565 E86.36227
G1 X192.223 Y199.278 E86.39538
G1 X192.145 Y199.941 E86.42634
G1 X192.017 Y200.586 E86.45686
G1 X191.841 Y201.212 E86.48701
G1 X191.620 Y201.816 E86.51685
G1 X191.356 Y202.396 E86.54644
G1 X191.050 Y202.951 E86.57581
G1 X190.706 Y203.478 E86.60501
G1 X190.324 Y203.974 E86.63406
G1 X189.908 Y204.439 E86.66299
G1 X189.459 Y204.869 E86.69184
G1 X188.979 Y205.262 E86.72062
G1 X188.471 Y205.617 E86.74937
G1 X187.937 Y205.932 E86.77812
G1 X187.379 Y206.204 E86.80692
G1 X186.799 Y206.431 E86.83582
G1 X186.199 Y206.611 E86.86488
G1 X185.581 Y206.742 E86.89419
G1 X184.948 Y206.823 E86.92382
G1 X184.295 Y206.850 E86.95414
G1 X35.705 Y206.850 E93.84760
G1 X35.038 Y206.823 E93.87859
G1 X34.391 Y206.742 E93.90883
G1 X33.761 Y206.611 E93.93867
G1 X33.151 Y206.430 E93.96819
G1 X32.562 Y206.203 E93.99749
G1 X31.996 Y205.931 E94.02662
G1 X31.455 Y205.617 E94.05565
G1 X30.941 Y205.262 E94.08461
G1 X30.451 Y204.862 E94.11393
G1 X30.004 Y204.438 E94.14254
G1 X29.584 Y203.973 E94.17158
G1 X29.200 Y203.477 E94.20070
G1 X28.854 Y202.950 E94.22994
G1 X28.547 Y202.396 E94.25935
G1 X28.281 Y201.816 E94.28895
G1 X28.060 Y201.212 E94.31880
G1 X27.884 Y200.586 E94.34895
G1 X27.755 Y199.941 E94.37947
G1 X27.677 Y199.278 E94.41043
G1 X27.649 Y198.566 E94.44348
G1 X25.152 Y187.882 E94.95252
G1 X25.163 Y187.758 E94.95827
G1 X25.453 Y187.626 F7800.000
G1 E90.95827 F600.00000
G92 E0
G1 X29.432 Y201.434 F7800.000
G1 E4.00000 F600.00000
G1 X33.138 Y205.140 E4.24344 F1800.000
G1 X34.103 Y205.473 F7800.000
G1 X29.077 Y200.447 E4.57356 F1800.000
G1 X28.896 Y199.634 E4.61224
G1 X34.887 Y205.625 E5.00575
G1 X35.576 Y205.682 E5.03789
G1 X28.825 Y198.931 E5.48135
G1 X28.792 Y198.266 E5.51230
G1 X36.219 Y205.693 E6.00015
G1 X36.851 Y205.693 E6.02950
G1 X28.599 Y197.441 E6.57152
G1 X28.407 Y196.616 E6.61086
G1 X37.483 Y205.693 E7.20705
G1 X38.115 Y205.693 E7.23641
G1 X28.214 Y195.792 E7.88677
G1 X28.021 Y194.967 E7.92610
G1 X38.747 Y205.693 E8.63064
G1 X39.379 Y205.693 E8.65999
G1 X27.828 Y194.142 E9.41870
G1 X27.636 Y193.318 E9.45803
G1 X40.011 Y205.693 E10.27091
G1 X40.643 Y205.693 E10.30026
G1 X27.443 Y192.493 E11.16731
G1 X27.250 Y191.668 E11.20665
G1 X41.275 Y205.693 E12.12787
G1 X41.907 Y205.693 E12.15722
G1 X27.058 Y190.844 E13.13261
G1 X26.865 Y190.019 E13.17195
G1 X42.539 Y205.693 E14.20151
G1 X43.171 Y205.693 E14.23086
G1 X26.672 Y189.194 E15.31459
G1 X26.480 Y188.370 E15.35393
G1 X43.803 Y205.693 E16.49183
G1 X44.435 Y205.693 E16.52119
G1 X26.749 Y188.007 E17.68290
G1 X27.381 Y188.007 E17.71225
G1 X45.067 Y205.693 E18.87398
G1 X45.699 Y205.693 E18.90333
G1 X28.013 Y188.007 E20.06508
G1 X28.645 Y188.007 E20.09442
G1 X46.331 Y205.693 E21.25617
G1 X46.963 Y205.693 E21.28553
G1 X29.276 Y188.007 E22.44729
G1 X29.908 Y188.006 E22.47664
G1 X47.595 Y205.693 E23.63841
G1 X48.227 Y205.693 E23.66777
G1 X30.540 Y188.006 E24.82955
G1 X31.172 Y188.006 E24.85890
G1 X48.859 Y205.693 E26.02070
G1 X49.490 Y205.693 E26.05005
G1 X31.804 Y188.006 E27.21186
G1 X32.436 Y188.006 E27.24121
G1 X50.122 Y205.693 E28.40303
G1 X50.754 Y205.693 E28.43238
G1 X33.067 Y188.005 E29.59421
G1 X33.699 Y188.005 E29.62356
G1 X51.386 Y205.693 E30.78540
G1 X52.018 Y205.693 E30.81476
G1 X34.331 Y188.005 E31.97661
G1 X34.963 Y188.005 E32.00596
G1 X52.650 Y205.693 E33.16782
G1 X53.282 Y205.693 E33.19718
G1 X35.595 Y188.005 E34.35906
G1 X36.226 Y188.005 E34.38840
G1 X53.914 Y205.693 E35.55029
G1 X54.546 Y205.693 E35.57965
G1 X36.858 Y188.004 E36.74154
G1 X37.490 Y188.004 E36.77089
G1 X55.178 Y205.693 E37.93280
G1 X55.810 Y205.693 E37.96216
G1 X38.122 Y188.004 E39.12408
G1 X38.754 Y188.004 E39.15343
G1 X56.442 Y205.693 E40.31536
G1 X57.074 Y205.693 E40.34471
G1 X39.386 Y188.004 E41.50666
G1 X39.989 Y187.976 E41.53474
G1 X57.706 Y205.693 E42.69853
G1 X58.338 Y205.693 E42.72788
G1 X40.497 Y187.851 E43.89986
G1 X40.936 Y187.658 E43.92214
G1 X58.970 Y205.693 E45.10677
G1 X59.602 Y205.693 E45.13612
G1 X41.314 Y187.404 E46.33745
G1 X41.643 Y187.102 E46.35823
G1 X60.234 Y205.693 E47.57944
G1 X60.866 Y205.693 E47.60879
G1 X41.930 Y186.756 E48.85270
G1 X42.163 Y186.357 E48.87416
G1 X61.498 Y205.693 E50.14429
