; generated by Slic3r 1.2.9 on 2018-10-24 at 18:44:01

; external perimeters extrusion width = 0.40mm
; perimeters extrusion width = 0.68mm
; infill extrusion width = 0.87mm
; solid infill extrusion width = 0.68mm
; top infill extrusion width = 0.68mm
; support material extrusion width = 0.40mm

M107
M190 S55 ; set bed temperature
M104 S200 ; set temperature
G28 ; home all axes
G1 Z5 F5000 ; lift nozzle

G12 P1 S1 T3 ; clean printer w/zig zags
M109 S200 ; wait for temperature to be reached
G21 ; set units to millimeters
G90 ; use absolute coordinates
M82 ; use absolute distances for extrusion
G92 E0
G1 Z0.200 F7800.000
G1 E-4.00000 F600.00000
G92 E0
G1 X88.040 Y35.039 F7800.000
G1 E4.00000 F600.00000
G1 X89.505 Y32.755 E4.08057 F1800.000
G1 X90.505 Y31.755 E4.12256
G1 X92.349 Y30.472 E4.18926
G1 X95.000 Y29.893 E4.26983
G1 X125.000 Y29.893 E5.16057
G1 X127.211 Y30.290 E5.22726
G1 X129.495 Y31.755 E5.30784 F1800.000
G1 X130.495 Y32.755 E5.34983
G1 X131.778 Y34.599 E5.41652
G1 X132.357 Y37.250 E5.49709
G1 X132.357 Y182.750 E9.81718
G1 X131.960 Y184.961 E9.88387
G1 X130.495 Y187.245 E9.96444
G1 X129.495 Y188.245 E10.00643
G1 X127.651 Y189.528 E10.07313
G1 X125.000 Y190.107 E10.15370
G1 X95.000 Y190.107 E11.04444
G1 X92.789 Y189.710 E11.11113
G1 X90.505 Y188.245 E11.19171
G1 X89.505 Y187.245 E11.23370
G1 X88.222 Y185.401 E11.30039
G1 X87.643 Y182.750 E11.38096
G1 X87.643 Y37.250 E15.70105
G1 X88.029 Y35.098 E15.76596
G1 E11.76596 F600.00000
G92 E0
G1 X125.200 Y37.050 F7800.000
G1 E4.00000 F600.00000
G1 X125.200 Y182.950 E8.33196 F1800.000
G1 X94.800 Y182.950 E9.23458
G1 X94.800 Y37.050 E13.56653
G1 X125.140 Y37.050 E14.46737
G1 X125.600 Y37.050 F7800.000
G1 X125.359 Y36.891 F7800.000
G1 X125.800 Y37.333 E14.48590 F1800.000
G1 X125.800 Y182.667 E18.80107
G1 X124.917 Y183.550 E18.83814
G1 X95.083 Y183.550 E19.72396
G1 X94.200 Y182.667 E19.76103 F1800.000
G1 X94.200 Y37.333 E24.07619
G1 X95.083 Y36.450 E24.11326
G1 X124.917 Y36.450 E24.99908
G1 X125.316 Y36.849 E25.01584
G1 X125.255 Y37.278 F7800.000
G1 X124.965 Y36.750 F7800.000
G1 X95.035 Y36.750 E26.89993 F1800.000
G1 X94.500 Y37.285 F7800.000
G1 X94.500 Y182.715 E36.05491 F1800.000
G1 X95.035 Y183.250 F7800.000
G1 X124.965 Y183.250 E37.93901 F1800.000
G1 X125.500 Y182.715 F7800.000
G1 X125.500 Y37.285 E47.09399 F1800.000
G1 Z0.200 F7800.000
M104 S195 ; set temperature
G1 Z0.350 F7800.000
G1 X125.200 Y37.050 F7800.000
G1 X125.200 Y182.950 E50.44059 F1800.000
G1 X94.800 Y182.950 E51.13790
G1 X94.800 Y37.050 E54.48450
G1 X125.140 Y37.050 E55.18042
G1 X125.600 Y37.050 F7800.000
G1 X125.359 Y36.891 F7800.000
G1 X125.800 Y37.333 E55.19474 F1800.000
G1 X125.800 Y182.667 E58.52837
G1 X124.917 Y183.550 E58.55701
G1 X95.083 Y183.550 E59.24133
G1 X94.200 Y182.667 E59.26997
G1 X94.200 Y37.333 E62.60360
G1 X95.083 Y36.450 E62.63224
G1 X124.917 Y36.450 E63.31656
G1 X125.316 Y36.849 E63.32951 F1800.000
G1 X125.255 Y37.278 F7800.000
G1 X124.858 Y36.750 F7800.000
G1 X95.142 Y36.750 E64.53002 F1200.000
G1 X94.500 Y37.392 F7800.000
G1 X94.500 Y182.608 E70.39663 F1200.000
G1 X95.142 Y183.250 F7800.000
G1 X124.858 Y183.250 E71.59714 F1200.000
G1 X125.500 Y182.608 F7800.000
G1 X125.500 Y37.392 E77.46376 F1200.000
G1 Z0.500 F7800.000
G1 X125.200 Y37.050 F7800.000
G1 X125.200 Y182.950 E80.81036 F1800.000
G1 X94.800 Y182.950 E81.50766
G1 X94.800 Y37.050 E84.85426
G1 X125.140 Y37.050 E85.55019
G1 X125.600 Y37.050 F7800.000
G1 X125.359 Y36.891 F7800.000
G1 X125.800 Y37.333 E85.56451 F1800.000
G1 X125.800 Y182.667 E88.89813
G1 X124.917 Y183.550 E88.92677
G1 X95.083 Y183.550 E89.61110
G1 X94.200 Y182.667 E89.63974 F1800.000
G1 X94.200 Y37.333 E92.97336
G1 X95.083 Y36.450 E93.00200
G1 X124.917 Y36.450 E93.68633
G1 X125.316 Y36.849 E93.69927
G1 X125.255 Y37.278 F7800.000
G1 X124.858 Y36.750 F7800.000
G1 X95.142 Y36.750 E94.89978 F1200.000
G1 X94.500 Y37.392 F7800.000
G1 X94.500 Y182.608 E100.76640 F1200.000
G1 X95.142 Y183.250 F7800.000
G1 X124.858 Y183.250 E101.96691 F1200.000
G1 X125.500 Y182.608 F7800.000
G1 X125.500 Y37.392 E107.83352 F1200.000
M106 S145.35
G1 Z0.650 F7800.000
G1 X125.200 Y37.050 F7800.000
G1 X125.200 Y182.950 E111.18012 F1800.000
G1 X94.800 Y182.950 E111.87743
G1 X94.800 Y37.050 E115.22403
G1 X125.140 Y37.050 E115.91996
G1 X125.600 Y37.050 F7800.000
G1 X125.359 Y36.891 F7800.000
G1 X125.800 Y37.333 E115.93428 F1800.000
G1 X125.800 Y182.667 E119.26790
G1 X124.917 Y183.550 E119.29654
G1 X95.083 Y183.550 E119.98087
G1 X94.200 Y182.667 E120.00950
G1 X94.200 Y37.333 E123.34313
G1 X95.083 Y36.450 E123.37177
G1 X124.917 Y36.450 E124.05610
G1 X125.316 Y36.849 E124.06904 F1800.000
G1 X125.255 Y37.278 F7800.000
G1 X124.858 Y36.750 F7800.000
G1 X95.142 Y36.750 E125.26955 F1200.000
G1 X94.500 Y37.392 F7800.000
G1 X94.500 Y182.608 E131.13616 F1200.000
G1 X95.142 Y183.250 F7800.000
G1 X124.858 Y183.250 E132.33667 F1200.000
G1 X125.500 Y182.608 F7800.000
G1 X125.500 Y37.392 E138.20329 F1200.000
G1 Z0.800 F7800.000
G1 X125.200 Y37.050 F7800.000
G1 X125.200 Y182.950 E141.54989 F1800.000
G1 X94.800 Y182.950 E142.24719
G1 X94.800 Y37.050 E145.59379
G1 X125.140 Y37.050 E146.28972
G1 X125.600 Y37.050 F7800.000
G1 X125.359 Y36.891 F7800.000
G1 X125.800 Y37.333 E146.30404 F1800.000
G1 X125.800 Y182.667 E149.63767
G1 X124.917 Y183.550 E149.66630
G1 X95.083 Y183.550 E150.35063
G1 X94.200 Y182.667 E150.37927
G1 X94.200 Y37.333 E153.71290
G1 X95.083 Y36.450 E153.74153
G1 X124.917 Y36.450 E154.42586
G1 X125.316 Y36.849 E154.43880 F1800.000
G1 X125.255 Y37.278 F7800.000
G1 X124.858 Y36.750 F7800.000
G1 X95.142 Y36.750 E155.63931 F1200.000
G1 X94.500 Y37.392 F7800.000
G1 X94.500 Y182.608 E161.50593 F1200.000
G1 X95.142 Y183.250 F7800.000
G1 X124.858 Y183.250 E162.70644 F1200.000
G1 X125.500 Y182.608 F7800.000
G1 X125.500 Y37.392 E168.57306 F1200.000
G1 Z0.950 F7800.000
G1 X125.200 Y37.050 F7800.000
G1 X125.200 Y182.950 E171.91966 F1800.000
G1 X94.800 Y182.950 E172.61696
G1 X94.800 Y37.050 E175.96356
G1 X125.140 Y37.050 E176.65949
G1 X125.600 Y37.050 F7800.000
G1 X125.359 Y36.891 F7800.000
G1 X125.800 Y37.333 E176.67381 F1800.000
G1 X125.800 Y182.667 E180.00743
G1 X124.917 Y183.550 E180.03607
G1 X95.083 Y183.550 E180.72040
G1 X94.200 Y182.667 E180.74904 F1800.000
G1 X94.200 Y37.333 E184.08266
G1 X95.083 Y36.450 E184.11130
G1 X124.917 Y36.450 E184.79563
G1 X125.316 Y36.849 E184.80857
G1 X125.255 Y37.278 F7800.000
G1 X124.858 Y36.750 F7800.000
G1 X95.142 Y36.750 E186.00908 F1200.000
G1 X94.500 Y37.392 F7800.000
G1 X94.500 Y182.608 E191.87570 F1200.000
G1 X95.142 Y183.250 F7800.000
G1 X124.858 Y183.250 E193.07621 F1200.000
G1 X125.500 Y182.608 F7800.000
G1 X125.500 Y37.392 E198.94282 F1200.000
G1 Z1.100 F7800.000
G1 X125.200 Y37.050 F7800.000
G1 X125.200 Y182.950 E202.28942 F1800.000
G1 X94.800 Y182.950 E202.98673
G1 X94.800 Y37.050 E206.33333
G1 X125.140 Y37.050 E207.02925
G1 X125.600 Y37.050 F7800.000
G1 X125.359 Y36.891 F7800.000
G1 X125.800 Y37.333 E207.04357 F1800.000
G1 X125.800 Y182.667 E210.37720
G1 X124.917 Y183.550 E210.40584
G1 X95.083 Y183.550 E211.09017
G1 X94.200 Y182.667 E211.11880 F1800.000
G1 X94.200 Y37.333 E214.45243
G1 X95.083 Y36.450 E214.48107
G1 X124.917 Y36.450 E215.16539
G1 X125.316 Y36.849 E215.17834
G1 X125.255 Y37.278 F7800.000
G1 X124.858 Y36.750 F7800.000
G1 X95.142 Y36.750 E216.37885 F1200.000
G1 X94.500 Y37.392 F7800.000
G1 X94.500 Y182.608 E222.24546 F1200.000
G1 X95.142 Y183.250 F7800.000
G1 X124.858 Y183.250 E223.44597 F1200.000
G1 X125.500 Y182.608 F7800.000
G1 X125.500 Y37.392 E229.31259 F1200.000
G1 Z1.250 F7800.000
G1 X125.200 Y37.050 F7800.000
G1 X125.200 Y182.950 E232.65919 F1800.000
G1 X94.800 Y182.950 E233.35649
G1 X94.800 Y37.050 E236.70309
G1 X125.140 Y37.050 E237.39902
G1 X125.600 Y37.050 F7800.000
G1 X125.359 Y36.891 F7800.000
G1 X125.800 Y37.333 E237.41334 F1800.000
G1 X125.800 Y182.667 E240.74696
G1 X124.917 Y183.550 E240.77560
G1 X95.083 Y183.550 E241.45993
G1 X94.200 Y182.667 E241.48857
G1 X94.200 Y37.333 E244.82219
G1 X95.083 Y36.450 E244.85083
G1 X124.917 Y36.450 E245.53516
G1 X125.316 Y36.849 E245.54810 F1800.000
G1 X125.255 Y37.278 F7800.000
G1 X124.858 Y36.750 F7800.000
G1 X95.142 Y36.750 E246.74861 F1200.000
G1 X94.500 Y37.392 F7800.000
G1 X94.500 Y182.608 E252.61523 F1200.000
G1 X95.142 Y183.250 F7800.000
G1 X124.858 Y183.250 E253.81574 F1200.000
G1 X125.500 Y182.608 F7800.000
G1 X125.500 Y37.392 E259.68236 F1200.000
G1 Z1.400 F7800.000
G1 X125.200 Y37.050 F7800.000
G1 X125.200 Y182.950 E263.02896 F1800.000
G1 X94.800 Y182.950 E263.72626
G1 X94.800 Y37.050 E267.07286
G1 X125.140 Y37.050 E267.76879
G1 X125.600 Y37.050 F7800.000
G1 X125.359 Y36.891 F7800.000
G1 X125.800 Y37.333 E267.78311 F1800.000
G1 X125.800 Y182.667 E271.11673
G1 X124.917 Y183.550 E271.14537
G1 X95.083 Y183.550 E271.82970
G1 X94.200 Y182.667 E271.85834 F1800.000
G1 X94.200 Y37.333 E275.19196
G1 X95.083 Y36.450 E275.22060
G1 X124.917 Y36.450 E275.90493
G1 X125.316 Y36.849 E275.91787
G1 X125.255 Y37.278 F7800.000
G1 X124.858 Y36.750 F7800.000
G1 X95.142 Y36.750 E277.11838 F1200.000
G1 X94.500 Y37.392 F7800.000
G1 X94.500 Y182.608 E282.98500 F1200.000
G1 X95.142 Y183.250 F7800.000
G1 X124.858 Y183.250 E284.18550 F1200.000
G1 X125.500 Y182.608 F7800.000
G1 X125.500 Y37.392 E290.05212 F1200.000
G1 Z1.550 F7800.000
G1 X125.200 Y37.050 F7800.000
G1 X125.200 Y182.950 E293.39872 F1800.000
G1 X94.800 Y182.950 E294.09603
G1 X94.800 Y37.050 E297.44263
G1 X125.140 Y37.050 E298.13855
G1 X125.600 Y37.050 F7800.000
G1 X125.359 Y36.891 F7800.000
G1 X125.800 Y37.333 E298.15287 F1800.000
G1 X125.800 Y182.667 E301.48650
G1 X124.917 Y183.550 E301.51514
G1 X95.083 Y183.550 E302.19946
G1 X94.200 Y182.667 E302.22810 F1800.000
G1 X94.200 Y37.333 E305.56173
G1 X95.083 Y36.450 E305.59036
G1 X124.917 Y36.450 E306.27469
G1 X125.316 Y36.849 E306.28764
G1 X125.255 Y37.278 F7800.000
G1 X124.858 Y36.750 F7800.000
G1 X95.142 Y36.750 E307.48814 F1200.000
G1 X94.500 Y37.392 F7800.000
G1 X94.500 Y182.608 E313.35476 F1200.000
G1 X95.142 Y183.250 F7800.000
G1 X124.858 Y183.250 E314.55527 F1200.000
G1 X125.500 Y182.608 F7800.000
G1 X125.500 Y37.392 E320.42189 F1200.000
G1 Z1.700 F7800.000
G1 X125.200 Y37.050 F7800.000
G1 X125.200 Y182.950 E323.76849 F1800.000
G1 X94.800 Y182.950 E324.46579
G1 X94.800 Y37.050 E327.81239
G1 X125.140 Y37.050 E328.50832
G1 X125.600 Y37.050 F7800.000
G1 X125.359 Y36.891 F7800.000
G1 X125.800 Y37.333 E328.52264 F1800.000
G1 X125.800 Y182.667 E331.85626
G1 X124.917 Y183.550 E331.88490
G1 X95.083 Y183.550 E332.56923
G1 X94.200 Y182.667 E332.59787 F1800.000
G1 X94.200 Y37.333 E335.93149
G1 X95.083 Y36.450 E335.96013
G1 X124.917 Y36.450 E336.64446
G1 X125.316 Y36.849 E336.65740
G1 X125.255 Y37.278 F7800.000
G1 X124.858 Y36.750 F7800.000
G1 X95.142 Y36.750 E337.85791 F1200.000
G1 X94.500 Y37.392 F7800.000
G1 X94.500 Y182.608 E343.72453 F1200.000
G1 X95.142 Y183.250 F7800.000
G1 X124.858 Y183.250 E344.92504 F1200.000
G1 X125.500 Y182.608 F7800.000
G1 X125.500 Y37.392 E350.79165 F1200.000
G1 Z1.850 F7800.000
G1 X125.200 Y37.050 F7800.000
G1 X125.200 Y182.950 E354.13825 F1800.000
G1 X94.800 Y182.950 E354.83556
G1 X94.800 Y37.050 E358.18216
G1 X125.140 Y37.050 E358.87809
G1 X125.600 Y37.050 F7800.000
G1 X125.359 Y36.891 F7800.000
G1 X125.800 Y37.333 E358.89240 F1800.000
G1 X125.800 Y182.667 E362.22603
G1 X124.917 Y183.550 E362.25467
G1 X95.083 Y183.550 E362.93900
G1 X94.200 Y182.667 E362.96763 F1800.000
G1 X94.200 Y37.333 E366.30126
G1 X95.083 Y36.450 E366.32990
G1 X124.917 Y36.450 E367.01423
G1 X125.316 Y36.849 E367.02717
G1 X125.255 Y37.278 F7800.000
G1 X124.858 Y36.750 F7800.000
G1 X95.142 Y36.750 E368.22768 F1200.000
G1 X94.500 Y37.392 F7800.000
G1 X94.500 Y182.608 E374.09429 F1200.000
G1 X95.142 Y183.250 F7800.000
G1 X124.858 Y183.250 E375.29480 F1200.000
G1 X125.500 Y182.608 F7800.000
G1 X125.500 Y37.392 E381.16142 F1200.000
G1 Z2.000 F7800.000
G1 X125.200 Y37.050 F7800.000
G1 X125.200 Y182.950 E384.50802 F1800.000
G1 X94.800 Y182.950 E385.20532
G1 X94.800 Y37.050 E388.55192
G1 X125.140 Y37.050 E389.24785
G1 X125.600 Y37.050 F7800.000
G1 X125.359 Y36.891 F7800.000
G1 X125.800 Y37.333 E389.26217 F1800.000
G1 X125.800 Y182.667 E392.59580
G1 X124.917 Y183.550 E392.62443
G1 X95.083 Y183.550 E393.30876
G1 X94.200 Y182.667 E393.33740
G1 X94.200 Y37.333 E396.67102
G1 X95.083 Y36.450 E396.69966
G1 X124.917 Y36.450 E397.38399
G1 X125.316 Y36.849 E397.39693 F1800.000
G1 X125.255 Y37.278 F7800.000
G1 X124.858 Y36.750 F7800.000
G1 X95.142 Y36.750 E398.59744 F1200.000
G1 X94.500 Y37.392 F7800.000
G1 X94.500 Y182.608 E404.46406 F1200.000
G1 X95.142 Y183.250 F7800.000
G1 X124.858 Y183.250 E405.66457 F1200.000
G1 X125.500 Y182.608 F7800.000
G1 X125.500 Y37.392 E411.53119 F1200.000
G1 Z2.150 F7800.000
G1 X125.200 Y37.050 F7800.000
G1 X125.200 Y182.950 E414.87779 F1800.000
G1 X94.800 Y182.950 E415.57509
G1 X94.800 Y37.050 E418.92169
G1 X125.140 Y37.050 E419.61762
G1 X125.600 Y37.050 F7800.000
G1 X125.359 Y36.891 F7800.000
G1 X125.800 Y37.333 E419.63194 F1800.000
G1 X125.800 Y182.667 E422.96556
G1 X124.917 Y183.550 E422.99420
G1 X95.083 Y183.550 E423.67853
G1 X94.200 Y182.667 E423.70717 F1800.000
G1 X94.200 Y37.333 E427.04079
G1 X95.083 Y36.450 E427.06943
G1 X124.917 Y36.450 E427.75376
G1 X125.316 Y36.849 E427.76670
G1 X125.255 Y37.278 F7800.000
G1 X124.858 Y36.750 F7800.000
G1 X95.142 Y36.750 E428.96721 F1200.000
G1 X94.500 Y37.392 F7800.000
G1 X94.500 Y182.608 E434.83383 F1200.000
G1 X95.142 Y183.250 F7800.000
G1 X124.858 Y183.250 E436.03434 F1200.000
G1 X125.500 Y182.608 F7800.000
G1 X125.500 Y37.392 E441.90095 F1200.000
G1 Z2.300 F7800.000
G1 X125.200 Y37.050 F7800.000
G1 X125.200 Y182.950 E445.24755 F1800.000
G1 X94.800 Y182.950 E445.94486
G1 X94.800 Y37.050 E449.29146
G1 X125.140 Y37.050 E449.98738
G1 X125.600 Y37.050 F7800.000
G1 X125.359 Y36.891 F7800.000
G1 X125.800 Y37.333 E450.00170 F1800.000
G1 X125.800 Y182.667 E453.33533
G1 X124.917 Y183.550 E453.36397
G1 X95.083 Y183.550 E454.04829
G1 X94.200 Y182.667 E454.07693
G1 X94.200 Y37.333 E457.41056
G1 X95.083 Y36.450 E457.43920
G1 X124.917 Y36.450 E458.12352
G1 X125.200 Y36.733 E458.13270
G1 X125.316 Y36.849 E458.13647 F1800.000
G1 X125.255 Y37.278 F7800.000
G1 X124.858 Y36.750 F7800.000
G1 X95.142 Y36.750 E459.33698 F1200.000
G1 X94.500 Y37.392 F7800.000
G1 X94.500 Y182.608 E465.20359 F1200.000
G1 X95.142 Y183.250 F7800.000
G1 X124.858 Y183.250 E466.40410 F1200.000
G1 X125.500 Y182.608 F7800.000
G1 X125.500 Y37.392 E472.27072 F1200.000
G1 Z2.450 F7800.000
G1 X125.200 Y37.050 F7800.000
G1 X125.200 Y182.950 E475.61732 F1800.000
G1 X94.800 Y182.950 E476.31462
G1 X94.800 Y37.050 E479.66122
G1 X125.140 Y37.050 E480.35715
G1 X125.600 Y37.050 F7800.000
G1 X125.359 Y36.891 F7800.000
G1 X125.800 Y37.333 E480.37147 F1800.000
G1 X125.800 Y182.667 E483.70509
G1 X124.917 Y183.550 E483.73373
G1 X95.083 Y183.550 E484.41806
G1 X94.200 Y182.667 E484.44670 F1800.000
G1 X94.200 Y37.333 E487.78032
G1 X95.083 Y36.450 E487.80896
G1 X124.917 Y36.450 E488.49329
G1 X125.316 Y36.849 E488.50623
G1 X125.255 Y37.278 F7800.000
G1 X124.858 Y36.750 F7800.000
G1 X95.142 Y36.750 E489.70674 F1200.000
G1 X94.500 Y37.392 F7800.000
G1 X94.500 Y182.608 E495.57336 F1200.000
G1 X95.142 Y183.250 F7800.000
G1 X124.858 Y183.250 E496.77387 F1200.000
G1 X125.500 Y182.608 F7800.000
G1 X125.500 Y37.392 E502.64049 F1200.000
G1 Z2.600 F7800.000
G1 X125.200 Y37.050 F7800.000
G1 X125.200 Y182.950 E505.98709 F1800.000
G1 X94.800 Y182.950 E506.68439
G1 X94.800 Y37.050 E510.03099
G1 X125.140 Y37.050 E510.72692
G1 X125.600 Y37.050 F7800.000
G1 X125.359 Y36.891 F7800.000
G1 X125.800 Y37.333 E510.74124 F1800.000
G1 X125.800 Y182.667 E514.07486
G1 X124.917 Y183.550 E514.10350
G1 X95.083 Y183.550 E514.78783
G1 X94.200 Y182.667 E514.81647 F1800.000
G1 X94.200 Y37.333 E518.15009
G1 X95.083 Y36.450 E518.17873
G1 X124.917 Y36.450 E518.86306
G1 X125.316 Y36.849 E518.87600
G1 X125.255 Y37.278 F7800.000
G1 X124.858 Y36.750 F7800.000
G1 X95.142 Y36.750 E520.07651 F1200.000
G1 X94.500 Y37.392 F7800.000
G1 X94.500 Y182.608 E525.94313 F1200.000
G1 X95.142 Y183.250 F7800.000
